public/img/ui/authorization.svg

<svg fill="none" height="40" viewBox="0 0 40 40" width="40" xmlns="http://www.w3.org/2000/svg" xmlns:xlink="http://www.w3.org/1999/xlink"><clipPath id="a"><path d="m0 0h40v40h-40z"/></clipPath><g clip-path="url(#a)" stroke="#ff2d20" stroke-linecap="round" stroke-linejoin="round" stroke-width="2"><path d="m19.6101 35.1211h4.49"/><path d="m20.79 31.4492h2.39"/><path d="m15.1201 21.1289h2.39"/><path d="m16.6201 17.75h2.39"/><path d="m15.1201 14.4609h2.39"/><path d="m13.1999 23.8295c3.3303 0 6.03-2.6997 6.03-6.03 0-3.3302-2.6997-6.03-6.03-6.03-3.33026 0-6.02998 2.6998-6.02998 6.03 0 3.3303 2.69972 6.03 6.02998 6.03z"/><path d="m9.95 23.5391-1.39 4.16-2.16.17c-1.66.13-3.05 1.32-3.44 2.94l-1.96 8.18"/><path d="m16.46 23.5391 1.39 4.16 2.16.17c1.66.13 3.05 1.32 3.44 2.94l1.96 8.18"/><path d="m3 24.82v-20.47c0-1.84 1.51-3.35 3.35-3.35h27.14c1.84 0 3.35 1.51 3.35 3.35v23.07c0 1.84-1.51 3.35-3.35 3.35h-5.51"/><path d="m3 6.35156h33.85"/></g></svg>

<svg width="40" height="40" viewBox="0 0 40 40" fill="none" xmlns="http://www.w3.org/2000/svg">
<g clip-path="url(#clip0_834_1169)">
<path d="M19.6101 35.1211H24.1001" stroke="#FF2D20" stroke-width="2" stroke-linecap="round" stroke-linejoin="round"/>
<path d="M20.79 31.4492H23.18" stroke="#FF2D20" stroke-width="2" stroke-linecap="round" stroke-linejoin="round"/>
<path d="M15.1201 21.1289H17.5101" stroke="#FF2D20" stroke-width="2" stroke-linecap="round" stroke-linejoin="round"/>
<path d="M16.6201 17.75H19.0101" stroke="#FF2D20" stroke-width="2" stroke-linecap="round" stroke-linejoin="round"/>
<path d="M15.1201 14.4609H17.5101" stroke="#FF2D20" stroke-width="2" stroke-linecap="round" stroke-linejoin="round"/>
<path d="M13.1999 23.8295C16.5302 23.8295 19.2299 21.1298 19.2299 17.7995C19.2299 14.4693 16.5302 11.7695 13.1999 11.7695C9.86964 11.7695 7.16992 14.4693 7.16992 17.7995C7.16992 21.1298 9.86964 23.8295 13.1999 23.8295Z" stroke="#FF2D20" stroke-width="2" stroke-linecap="round" stroke-linejoin="round"/>
<path d="M9.95 23.5391L8.56 27.6991L6.4 27.8691C4.74 27.9991 3.35 29.1891 2.96 30.8091L1 38.9891" stroke="#FF2D20" stroke-width="2" stroke-linecap="round" stroke-linejoin="round"/>
<path d="M16.46 23.5391L17.85 27.6991L20.01 27.8691C21.67 27.9991 23.06 29.1891 23.45 30.8091L25.41 38.9891" stroke="#FF2D20" stroke-width="2" stroke-linecap="round" stroke-linejoin="round"/>
<path d="M3 24.82V4.35C3 2.51 4.51 1 6.35 1H33.49C35.33 1 36.84 2.51 36.84 4.35V27.42C36.84 29.26 35.33 30.77 33.49 30.77H27.98" stroke="#FF2D20" stroke-width="2" stroke-linecap="round" stroke-linejoin="round"/>
<path d="M3 6.35156H36.85" stroke="#FF2D20" stroke-width="2" stroke-linecap="round" stroke-linejoin="round"/>
</g>
<defs>
<clipPath id="clip0_834_1169">
<rect width="40" height="40" fill="white"/>
</clipPath>
</defs>
</svg>
